X:4
T:All Hands Hoye. ThoH.004
Q:1/2=100
M:C|
L:1/8
B:Thompson's Compleat Collection of 120 Favourite Hornpipes.
Z:Village Music Project, Simon Wilson 2016
O:England.
K:F
|:((3cde)|f2F2-F2GA|Bcdef2a2|(gfed) (cege)|(bg)(ae) (fb)(ag)|
faF2-F2GA|Bcde (fg)a2|(ge)(fd) (cf)(cB)|A2F2-F2:|
|:fg|af(cf) bg(cb)|af(ca) ge(cg)|(fdcd) (=Bagf)|((3efg) ((3=Bcd)c2fc|
((3def) ((3ABc)B2ba|gfedc2BA|((3Bcd) ((3GAB) EdcB|A2F2-F2:|

